X: 189
M: 2/4
L: 1/8
K: G
|:\
|:\
|:\
a2fd | a2fd | cBAG | FG/A/ D2 |\
a2fd | a2fd | cB AG/F/ | G2G,2 :|

